X:3583
L:1/8
M:6/8
K:G
 GAG BGB | ded dBG | cBc ege | dBG A2 D | GAG BGB | ded B2 g | fed cBA | G3 G3 :: ded Bcd | 
 ece e2 e | fgf def | gBd gfe | ded Bcd | ede gfe | ded cBA | G3 G3 :|

